blockchains/ethereum/assets/0x1985365e9f78359a9B6AD760e32412f4a445E862/logo.svg

<svg fill="none" height="250" viewBox="0 0 250 250" width="250" xmlns="http://www.w3.org/2000/svg" xmlns:xlink="http://www.w3.org/1999/xlink"><clipPath id="a"><path d="m0 0h250v250h-250z"/></clipPath><g clip-path="url(#a)"><path d="m125 250c69.036 0 125-55.964 125-125 0-69.0356-55.964-125-125-125-69.0356 0-125 55.9644-125 125 0 69.036 55.9644 125 125 125z" fill="#5f2652"/><path d="m196.075 157.376-65.4-117.2997c-1.131-2.0948-3.32-3.4005-5.7-3.4005-2.381 0-4.569 1.3057-5.7 3.4005l-65.375 117.2997c-1.7 3.025-.725 6.95 2.325 8.75l65.475 39.15c2.108 1.2 4.692 1.2 6.8 0l65.375-39.075c2.9-1.875 3.975-5.8 2.2-8.825zm-49.425-47.275-1.6-1.35-.1-.1c-.509-.416-1.043-.8-1.6-1.15l-.1-.1c-.525-.35-1.075-.725-1.7-1.075-.1 0-.1-.1-.175-.1-.525-.35-1.15-.625-1.7-.9-.1 0-.1-.1-.175-.1-.525-.275-1.15-.525-1.775-.8-.1 0-.1-.1-.175-.1-.525-.175-1.075-.45-1.6-.625-1.445-.541-2.934-.959-4.45-1.25-1.15 2.225-2.775 4.2-4.55 5.875 2.775.175 5.45.9 7.85 1.875 1.419.611 2.79 1.33 4.1 2.15.07.008.133.044.175.1.35.175.625.45.975.725.167.093.319.211.45.35.324.211.625.454.9.725.175.175.35.275.525.45.275.275.525.45.8.725l.525.525.725.725.525.525c.189.258.398.5.625.725.175.2.35.45.525.625l.525.8c.175.275.35.45.45.725l.525.8c.175.275.275.525.45.725.175.275.275.525.45.8s.275.525.45.8c.1.275.275.525.35.8.175.35.275.725.45.975.751 1.827 1.263 3.743 1.525 5.7l.8 3.125c.35 1.35 3.575 12.75 11.05 16.6 8.575 4.45 19.9 10 24.35 12.125l-58.75 35.15v-24.075c0-3.825 7.575-8.3 11.05-9.8l.175-.1c.725-.35 1.425-.725 2.15-1.15l.275-.175c1.522-.902 2.954-1.948 4.275-3.125.1-.1.275-.175.35-.35.175-.1.275-.275.45-.35.45-.35.8-.8 1.25-1.15l.175-.175c.462-.432.881-.91 1.25-1.425.1-.175.275-.275.35-.45.35-.35.625-.8.975-1.25.1-.1.175-.275.275-.35l1.075-1.6c0-.1.1-.1.1-.175.45-.725.9-1.525 1.35-2.225-1.775-2.15-3.125-4.45-4.2-6.6-.455 1.322-1.024 2.602-1.7 3.825-.275.525-.625 1.075-.9 1.6-.1.1-.1.175-.175.175-.276.434-.577.851-.9 1.25-.1.1-.175.275-.275.35-.277.422-.605.808-.975 1.15-.1.1-.1.175-.175.175-2.15 2.4-4.725 4.45-7.675 5.875l-.525.275c-1.525.625-14.625 6.6-14.625 15.6v24.075l-58.875-35.05c3.825-2.325 14.9-8.925 24-11.775 3.575-1.15 11.15 3.65 15.425 7.125l.275.275c.551.554 1.144 1.064 1.775 1.525l.175.175c1.35 1.075 2.775 2.15 4.375 2.95l1.075.525c.07.008.133.044.175.1.975.525 1.95.975 3.025 1.425.146.069.296.128.45.175.1 0 .175.1.35.1 1.525.525 3.025.975 4.55 1.35 1.15-2.225 2.85-4.2 4.65-5.875-2.507-.17-4.975-.709-7.325-1.6-.1-.1-.275-.1-.35-.175-.28-.084-.548-.202-.8-.35-.1-.1-.275-.1-.35-.175-.275-.1-.525-.275-.725-.35-1.775-.9-3.4-1.875-4.9-3.125l-2.325-2.15c-2.149-1.888-4.476-3.563-6.95-5-5.8-3.3-10.7-4.375-14.45-3.2-7.75 2.5-16.6 7.225-21.95 10.35l58.775-105.5997v46.3c0 1.6-2.4 5.8747-10.525 9.5497l-.525.275c-.8.35-1.525.8-2.325 1.25l-.175.1c-1.538.926-3.001 1.971-4.375 3.125-.866.704-1.669 1.482-2.4 2.325l-.1.1c-.79.767-1.5098 1.604-2.15 2.5l-.1.1c-.35.45-.625.9-.975 1.35 0 .1-.1.1-.1.175-.275.45-.525.8-.8 1.25 0 .1-.1.1-.1.175l-.8 1.35c-.1.1-.1.175-.175.35-.275.45-.45.9-.625 1.25-.0073.07-.0436.134-.1.175-.175.45-.35.8-.525 1.25-.0691.146-.1276.296-.175.45l-.525 1.35c-.0691.146-.1276.296-.175.45-.0832.336-.2004.663-.35.975-.1.175-.1.35-.175.525-.1.45-.275.9-.35 1.25-.1.175-.1.45-.175.625-.1.275-.1.625-.175.9-.1.275-.1.525-.175.8-.1.35-.1.725-.175 1.075 0 .275-.1.45-.1.725 0 .35-.1.625-.1.975.0163.328-.0174.657-.1.975v1.35c-.0106 1.615.1064 3.229.35 4.825 2.325.525 4.725 1.525 7.325 2.775-.725-2.325-1.075-4.725-1.15-7.225v-.45c-.0166-.593.0169-1.187.1-1.775v-.45c0-.525.1-.975.175-1.525v-.175c.1-.525.175-1.075.275-1.7 0-.175.1-.275.1-.45.1-.45.275-.9.35-1.35 0-.1.1-.175.1-.275l.525-1.6c.1-.1.1-.275.175-.35.175-.45.35-.9.525-1.25.1-.1.1-.175.175-.35.275-.525.45-.975.8-1.425.067-.086.126-.178.175-.275.275-.45.45-.8.725-1.25.067-.086.126-.178.175-.275.3-.467.626-.918.975-1.35-.001-.026.01-.052.028-.071.019-.019.045-.029.072-.029.35-.45.625-.8.975-1.25.067-.086.126-.178.175-.275 1.609-1.777 3.441-3.34 5.45-4.65l2.775-1.35c1.525-.625 14.55-6.775 14.55-15.7997v-46.125l59.325 106.4997c-5.275-2.575-14.625-7.225-21.85-10.975-4.2-2.15-6.95-9.725-7.75-12.5l-.8-3.2c0-1.7-.45-3.4-.975-5.075-1.884-5.297-5.094-10.022-9.325-13.725z" fill="#fff"/></g></svg>

<svg width="250" height="250" viewBox="0 0 250 250" fill="none" xmlns="http://www.w3.org/2000/svg">
<g clip-path="url(#clip0_44_10609)">
<path d="M125 250C194.036 250 250 194.036 250 125C250 55.9644 194.036 0 125 0C55.9644 0 0 55.9644 0 125C0 194.036 55.9644 250 125 250Z" fill="#5F2652"/>
<path d="M196.075 157.376L130.675 40.0763C129.544 37.9815 127.355 36.6758 124.975 36.6758C122.594 36.6758 120.406 37.9815 119.275 40.0763L53.9 157.376C52.2 160.401 53.175 164.326 56.225 166.126L121.7 205.276C123.808 206.476 126.392 206.476 128.5 205.276L193.875 166.201C196.775 164.326 197.85 160.401 196.075 157.376ZM146.65 110.101L145.05 108.751L144.95 108.651C144.441 108.235 143.907 107.851 143.35 107.501L143.25 107.401C142.725 107.051 142.175 106.676 141.55 106.326C141.45 106.326 141.45 106.226 141.375 106.226C140.85 105.876 140.225 105.601 139.675 105.326C139.575 105.326 139.575 105.226 139.5 105.226C138.975 104.951 138.35 104.701 137.725 104.426C137.625 104.426 137.625 104.326 137.55 104.326C137.025 104.151 136.475 103.876 135.95 103.701C134.505 103.16 133.016 102.742 131.5 102.451C130.35 104.676 128.725 106.651 126.95 108.326C129.725 108.501 132.4 109.226 134.8 110.201C136.219 110.812 137.59 111.531 138.9 112.351C138.97 112.359 139.033 112.395 139.075 112.451C139.425 112.626 139.7 112.901 140.05 113.176C140.217 113.269 140.369 113.387 140.5 113.526C140.824 113.737 141.125 113.98 141.4 114.251C141.575 114.426 141.75 114.526 141.925 114.701C142.2 114.976 142.45 115.151 142.725 115.426L143.25 115.951L143.975 116.676L144.5 117.201C144.689 117.459 144.898 117.701 145.125 117.926C145.3 118.126 145.475 118.376 145.65 118.551L146.175 119.351C146.35 119.626 146.525 119.801 146.625 120.076L147.15 120.876C147.325 121.151 147.425 121.401 147.6 121.601C147.775 121.876 147.875 122.126 148.05 122.401C148.225 122.676 148.325 122.926 148.5 123.201C148.6 123.476 148.775 123.726 148.85 124.001C149.025 124.351 149.125 124.726 149.3 124.976C150.051 126.803 150.563 128.719 150.825 130.676L151.625 133.801C151.975 135.151 155.2 146.551 162.675 150.401C171.25 154.851 182.575 160.401 187.025 162.526L128.275 197.676V173.601C128.275 169.776 135.85 165.301 139.325 163.801L139.5 163.701C140.225 163.351 140.925 162.976 141.65 162.551L141.925 162.376C143.447 161.474 144.879 160.428 146.2 159.251C146.3 159.151 146.475 159.076 146.55 158.901C146.725 158.801 146.825 158.626 147 158.551C147.45 158.201 147.8 157.751 148.25 157.401L148.425 157.226C148.887 156.794 149.306 156.316 149.675 155.801C149.775 155.626 149.95 155.526 150.025 155.351C150.375 155.001 150.65 154.551 151 154.101C151.1 154.001 151.175 153.826 151.275 153.751L152.35 152.151C152.35 152.051 152.45 152.051 152.45 151.976C152.9 151.251 153.35 150.451 153.8 149.751C152.025 147.601 150.675 145.301 149.6 143.151C149.145 144.473 148.576 145.753 147.9 146.976C147.625 147.501 147.275 148.051 147 148.576C146.9 148.676 146.9 148.751 146.825 148.751C146.549 149.185 146.248 149.602 145.925 150.001C145.825 150.101 145.75 150.276 145.65 150.351C145.373 150.773 145.045 151.159 144.675 151.501C144.575 151.601 144.575 151.676 144.5 151.676C142.35 154.076 139.775 156.126 136.825 157.551L136.3 157.826C134.775 158.451 121.675 164.426 121.675 173.426V197.501L62.8 162.451C66.625 160.126 77.7 153.526 86.8 150.676C90.375 149.526 97.95 154.326 102.225 157.801L102.5 158.076C103.051 158.63 103.644 159.14 104.275 159.601L104.45 159.776C105.8 160.851 107.225 161.926 108.825 162.726L109.9 163.251C109.97 163.259 110.033 163.295 110.075 163.351C111.05 163.876 112.025 164.326 113.1 164.776C113.246 164.845 113.396 164.904 113.55 164.951C113.65 164.951 113.725 165.051 113.9 165.051C115.425 165.576 116.925 166.026 118.45 166.401C119.6 164.176 121.3 162.201 123.1 160.526C120.593 160.356 118.125 159.817 115.775 158.926C115.675 158.826 115.5 158.826 115.425 158.751C115.145 158.667 114.877 158.549 114.625 158.401C114.525 158.301 114.35 158.301 114.275 158.226C114 158.126 113.75 157.951 113.55 157.876C111.775 156.976 110.15 156.001 108.65 154.751L106.325 152.601C104.176 150.713 101.849 149.038 99.375 147.601C93.575 144.301 88.675 143.226 84.925 144.401C77.175 146.901 68.325 151.626 62.975 154.751L121.75 49.1513V95.4513C121.75 97.0513 119.35 101.326 111.225 105.001L110.7 105.276C109.9 105.626 109.175 106.076 108.375 106.526L108.2 106.626C106.662 107.552 105.199 108.597 103.825 109.751C102.959 110.455 102.156 111.233 101.425 112.076L101.325 112.176C100.535 112.943 99.8152 113.78 99.175 114.676L99.075 114.776C98.725 115.226 98.45 115.676 98.1 116.126C98.1 116.226 98 116.226 98 116.301C97.725 116.751 97.475 117.101 97.2 117.551C97.2 117.651 97.1 117.651 97.1 117.726L96.3 119.076C96.2 119.176 96.2 119.251 96.125 119.426C95.85 119.876 95.675 120.326 95.5 120.676C95.4927 120.746 95.4564 120.81 95.4 120.851C95.225 121.301 95.05 121.651 94.875 122.101C94.8059 122.247 94.7474 122.397 94.7 122.551L94.175 123.901C94.1059 124.047 94.0474 124.197 94 124.351C93.9168 124.687 93.7996 125.014 93.65 125.326C93.55 125.501 93.55 125.676 93.475 125.851C93.375 126.301 93.2 126.751 93.125 127.101C93.025 127.276 93.025 127.551 92.95 127.726C92.85 128.001 92.85 128.351 92.775 128.626C92.675 128.901 92.675 129.151 92.6 129.426C92.5 129.776 92.5 130.151 92.425 130.501C92.425 130.776 92.325 130.951 92.325 131.226C92.325 131.576 92.225 131.851 92.225 132.201C92.2413 132.529 92.2076 132.858 92.125 133.176V134.526C92.1144 136.141 92.2314 137.755 92.475 139.351C94.8 139.876 97.2 140.876 99.8 142.126C99.075 139.801 98.725 137.401 98.65 134.901V134.451C98.6334 133.858 98.6669 133.264 98.75 132.676V132.226C98.75 131.701 98.85 131.251 98.925 130.701V130.526C99.025 130.001 99.1 129.451 99.2 128.826C99.2 128.651 99.3 128.551 99.3 128.376C99.4 127.926 99.575 127.476 99.65 127.026C99.65 126.926 99.75 126.851 99.75 126.751L100.275 125.151C100.375 125.051 100.375 124.876 100.45 124.801C100.625 124.351 100.8 123.901 100.975 123.551C101.075 123.451 101.075 123.376 101.15 123.201C101.425 122.676 101.6 122.226 101.95 121.776C102.017 121.69 102.076 121.598 102.125 121.501C102.4 121.051 102.575 120.701 102.85 120.251C102.917 120.165 102.976 120.073 103.025 119.976C103.325 119.509 103.651 119.058 104 118.626C103.999 118.6 104.01 118.574 104.028 118.555C104.047 118.536 104.073 118.526 104.1 118.526C104.45 118.076 104.725 117.726 105.075 117.276C105.142 117.19 105.201 117.098 105.25 117.001C106.859 115.224 108.691 113.661 110.7 112.351L113.475 111.001C115 110.376 128.025 104.226 128.025 95.2013V49.0763L187.35 155.576C182.075 153.001 172.725 148.351 165.5 144.601C161.3 142.451 158.55 134.876 157.75 132.101L156.95 128.901C156.95 127.201 156.5 125.501 155.975 123.826C154.091 118.529 150.881 113.804 146.65 110.101Z" fill="white"/>
</g>
<defs>
<clipPath id="clip0_44_10609">
<rect width="250" height="250" fill="white"/>
</clipPath>
</defs>
</svg>
